tools/download-figma-icons/icons/solid/oil-heating.svg

<svg width="24" height="24" viewBox="0 0 24 24" fill="none" xmlns="http://www.w3.org/2000/svg">
<path d="M18.9831 11.9963C18.9831 11.0222 18.3537 10.1979 17.4845 9.88323V4.36091C18.3537 4.0537 18.9831 3.22947 18.9831 2.24789C18.9831 1.01155 17.9716 0 16.7352 0H3.24789C2.01155 0.00749298 1 1.01904 1 2.25539C1 3.22947 1.62941 4.0537 2.4986 4.3684V9.89073C1.62941 10.1979 1 11.0222 1 12.0037C1 12.9853 1.62941 13.8021 2.4986 14.1168V19.6391C1.62941 19.9463 1 20.7705 1 21.7521C1 22.9884 2.01155 24 3.24789 24H16.7352C17.9716 24 18.9831 22.9884 18.9831 21.7521C18.9831 20.778 18.3537 19.9538 17.4771 19.6391V14.1168C18.3462 13.8096 18.9831 12.9853 18.9831 12.0037V11.9963ZM3.24789 1.50609H16.7352C17.1474 1.50609 17.4845 1.84327 17.4845 2.25539C17.4845 2.6675 17.1474 3.00468 16.7352 3.00468H3.24789C2.83578 3.00468 2.4986 2.6675 2.4986 2.25539C2.4986 1.84327 2.83578 1.50609 3.24789 1.50609ZM3.24789 11.247H16.7352C17.1474 11.247 17.4845 11.5841 17.4845 11.9963C17.4845 12.4084 17.1474 12.7456 16.7352 12.7456H3.24789C2.83578 12.7456 2.4986 12.4084 2.4986 11.9963C2.4986 11.5841 2.83578 11.247 3.24789 11.247ZM16.7352 22.4864H3.24789C2.83578 22.4864 2.4986 22.1492 2.4986 21.7371C2.4986 21.325 2.83578 20.9878 3.24789 20.9878H16.7352C17.1474 20.9878 17.4845 21.325 17.4845 21.7371C17.4845 22.1492 17.1474 22.4864 16.7352 22.4864Z" fill="black"/>
<path d="M16.6455 17.2402C19.5423 17.2402 21.8906 14.8919 21.8906 11.9951C21.8906 9.0983 19.5423 6.75 16.6455 6.75C13.7487 6.75 11.4004 9.0983 11.4004 11.9951C11.4004 14.8919 13.7487 17.2402 16.6455 17.2402Z" fill="white"/>
<path d="M16.6454 5.25195C12.9289 5.25195 9.90173 8.27912 9.90173 11.9956C9.90173 15.7121 12.9289 18.7393 16.6454 18.7393C20.3619 18.7393 23.3891 15.7121 23.3891 11.9956C23.3891 8.27912 20.3619 5.25195 16.6454 5.25195ZM16.6454 17.2407C13.7531 17.2407 11.4003 14.8879 11.4003 11.9956C11.4003 9.10334 13.7531 6.75055 16.6454 6.75055C19.5377 6.75055 21.8905 9.10334 21.8905 11.9956C21.8905 14.8879 19.5377 17.2407 16.6454 17.2407Z" fill="black"/>
<path d="M16.7355 15.6468C15.2593 15.6468 14.053 14.4629 14.053 13.0018C14.053 12.1551 14.4051 11.6605 14.7798 11.1285C15.1245 10.6415 15.5141 10.0945 15.8513 9.00052C15.9712 8.61089 16.3233 8.34863 16.7355 8.34863C17.1401 8.34863 17.4997 8.61089 17.6121 9.00052C17.9493 10.087 18.339 10.6415 18.6836 11.1285C19.0583 11.653 19.4105 12.1551 19.4105 13.0018C19.4105 14.4629 18.2116 15.6468 16.7355 15.6468ZM16.7355 10.8213C16.4732 11.3308 16.2184 11.6905 16.0086 11.9977C15.6715 12.4698 15.5591 12.6496 15.5591 13.0018C15.5591 13.6387 16.0911 14.1482 16.743 14.1482C17.3948 14.1482 17.9194 13.6312 17.9194 13.0018C17.9194 12.6496 17.807 12.4698 17.4698 11.9977C17.26 11.698 16.9977 11.3308 16.743 10.8213H16.7355Z" fill="black"/>
</svg>

<svg width="24" height="24" viewBox="0 0 24 24" fill="none" xmlns="http://www.w3.org/2000/svg"><path d="M18.983 11.996c0-.974-.63-1.798-1.498-2.113V4.361a2.24 2.24 0 0 0 1.498-2.113A2.254 2.254 0 0 0 16.735 0H3.248A2.266 2.266 0 0 0 1 2.255c0 .974.63 1.799 1.499 2.113v5.523A2.24 2.24 0 0 0 1 12.004c0 .981.63 1.798 1.499 2.113v5.522A2.24 2.24 0 0 0 1 21.752 2.255 2.255 0 0 0 3.248 24h13.487a2.255 2.255 0 0 0 2.248-2.248c0-.974-.63-1.798-1.506-2.113v-5.522a2.248 2.248 0 0 0 1.506-2.113v-.008ZM3.248 1.506h13.487c.412 0 .75.337.75.75a.752.752 0 0 1-.75.749H3.248a.751.751 0 0 1-.75-.75c0-.412.338-.749.75-.749Zm0 9.741h13.487c.412 0 .75.337.75.75a.753.753 0 0 1-.75.749H3.248a.752.752 0 0 1-.75-.75c0-.412.338-.749.75-.749Zm13.487 11.24H3.248a.752.752 0 0 1-.75-.75c0-.412.338-.75.75-.75h13.487c.412 0 .75.338.75.75s-.338.75-.75.75Z" fill="currentColor"/><path d="M16.645 17.24a5.245 5.245 0 1 0 0-10.49 5.245 5.245 0 0 0 0 10.49Z" fill="currentColor"/><path d="M16.645 5.252c-3.716 0-6.743 3.027-6.743 6.744 0 3.716 3.027 6.743 6.743 6.743 3.717 0 6.744-3.027 6.744-6.743 0-3.717-3.027-6.744-6.744-6.744Zm0 11.989a5.25 5.25 0 0 1-5.245-5.245 5.25 5.25 0 0 1 5.245-5.245 5.25 5.25 0 0 1 5.245 5.245 5.25 5.25 0 0 1-5.245 5.245Z" fill="currentColor"/><path d="M16.735 15.647c-1.476 0-2.682-1.184-2.682-2.645 0-.847.352-1.341.727-1.873.345-.487.734-1.034 1.071-2.128a.917.917 0 0 1 .884-.652c.405 0 .765.262.877.652.337 1.086.727 1.64 1.072 2.128.374.524.726 1.026.726 1.873 0 1.46-1.198 2.645-2.675 2.645Zm0-4.826c-.262.51-.517.87-.726 1.177-.338.472-.45.652-.45 1.004 0 .637.532 1.146 1.184 1.146.652 0 1.176-.517 1.176-1.146 0-.352-.112-.532-.45-1.004-.209-.3-.471-.667-.726-1.177h-.008Z" fill="currentColor"/></svg>
